X:1
T:Title
%%score { ( 1 4 ) | ( 2 3 ) }
L:1/8
M:4/4
K:Bb
V:1 treble nm="Grand Piano"
V:4 treble 
V:2 bass 
V:3 bass 
V:1
 z4 z2[Q:1/4=100] [Fd][Ec] | [DB]2 [DF]2 [_D=E][=DF]c[DB] |[M:3/4] [EB]2 A4 |[M:1/4] ed | %4
[M:4/4] c2 A2 GF[FB][Fc] |[M:3/4] [Fd]6 |[M:1/4] [Fd][Ec] | %7
[M:4/4] [DB]2 [DF]2 [_D=E][=DF][Dc][FB] |[M:3/4] [FA]2 [EG]4 |[M:5/16] [Fe]3/2[Fd] | %10
[M:4/4] [=Ec][EG][EA][EB] [Ec]2 [Ed]2 |[M:7/8] c- c3 F3 |[M:1/4] F2 |[M:4/4] d4 c4 | %14
 B6[K:bass] z2 | [B,DF]2 [_A,DF]2 [=A,EF]2 [A,EG]2 |[M:3/4] F6 |[M:1/4] F2 |[M:4/4] d4 c4 | B6 z2 | %20
 [=EG]2 [Ec]2 [Ec]2 [Ed]2 | c6 z2 | d4 c4 | B6[K:bass][K:treble] z2 | %24
 [B,EG]2 [B,GB]2 [Gc]2 [G_d]2 | [^Fd]6 [Ad]2 | e2 d2 =B2 G2 | [=Ed]2 [Ec]2 [EB]2 [EG]2 | F4 c4 | %29
[M:3/4] [DB]6 |] %30
V:2
 z4 z2 [B,,B,][B,,B,] | [B,,B,]2 [B,,B,]2 [B,,G,][B,,F,][F,D][B,,F,] |[M:3/4] [C,F,]2 [F,CE]4 | %3
[M:1/4] [F,CF][F,B,F] |[M:4/4] [F,A,E]2 [F,CE]2 [F,B,E][E,C][D,B,][C,A,] |[M:3/4] [B,,B,]6 | %6
[M:1/4] [B,,B,][B,,B,] |[M:4/4] [B,,B,]2 [B,,B,]2 [B,,G,][B,,F,][B,,F,][D,B,] | %8
[M:3/4] [E,B,]2 [E,B,]4 |[M:5/16] [C,A,]3/2[B,,B,] | %10
[M:4/4] [C,B,][C,B,][C,A,][C,G,] [C,B,]2 [C,B,]2 |[M:7/8] E-E-E- E- E2- E/ z/ |[M:1/4] z2 | %13
[M:4/4] z2 [B,,B,]2 [C,B,]2 F,2 | B,,2 B,,2 B,,2 B,,>B,, | B,,2 =B,,2 C,2 F,2 |[M:3/4] z2 G,2 F,2 | %17
[M:1/4] z2 |[M:4/4] z2 [B,,B,]2 [C,B,]2 [F,A,]2 | [G,B,D]2 [G,C]2 [G,B,]2 [G,B,D]>[G,B,D] | %20
 [C,B,]2 [C,B,]2 [C,B,]2 [C,B,]2 | [A,F]2 B,2 C2 z2 | z2 [B,,B,]2 [C,B,]2 F,2 | %23
 B,,2 B,,2 B,,2 B,,2 | E,2 E,2 [E,B,]2 [E,G,]2 | [D,A,]6 [D,C]2 | %26
 [G,=B,G]2 [G,B,F]2 [G,DF]2 [G,B,F]2 | [C,B,]2 [C,B,]2 [C,G,]2 [C,C]2 | C2 z2 E4 | %29
[M:3/4] [B,,F,]6 |] %30
V:3
 x8 | x8 |[M:3/4] x6 |[M:1/4] x2 |[M:4/4] x8 |[M:3/4] x6 |[M:1/4] x2 |[M:4/4] x8 |[M:3/4] x6 | %9
[M:5/16] x5/2 |[M:4/4] x8 |[M:7/8] [F,A,]-[F,A,]-[F,A,]- [F,A,]- [F,A,]3 |[M:1/4] x2 |[M:4/4] x8 | %14
 x8 | x8 |[M:3/4] B,,6 |[M:1/4] x2 |[M:4/4] x8 | x8 | x8 | F,6 z2 | x8 | x8 | x8 | x8 | x8 | x8 | %28
 [F,E]4 [F,A,]2 z2 |[M:3/4] x6 |] %30
V:4
 x8 | x8 |[M:3/4] x6 |[M:1/4] x2 |[M:4/4] x8 |[M:3/4] x6 |[M:1/4] x2 |[M:4/4] x8 |[M:3/4] x6 | %9
[M:5/16] x5/2 |[M:4/4] x8 |[M:7/8] x7 |[M:1/4] x2 |[M:4/4] z2 F2 =E2 [A,_E]2 | %14
 [B,D]2[K:bass] [G,E]2 [F,D]2 [F,B,D]>[F,CE] | x8 |[M:3/4] [B,D]2 E2 D2 |[M:1/4] x2 | %18
[M:4/4] z2 F2 =E2 _E2 | z2 E2 D2 B>A | x8 | z2 G2 A2 F2 | z2 F2 =E2 [A,_E]2 | %23
 [B,D]2[K:bass] [G,E]2 [F,D]2[K:treble] [B,DF]2 | x8 | x8 | x8 | x8 | z2 B,2 z2 F,2 |[M:3/4] x6 |] %30

